;FLAVOR:Marlin
;TIME:334
;Filament used: 0.264547m
;Layer height: 0.2
;Generated with Cura_SteamEngine 3.5.1
M82 ;absolute extrusion mode
;Gcode by Cura
G90
M106 S255
G28 X Y
G1 X50
M109 R90
G28
M104 S215.0
G29
M107
G1 X100 Y20 F3000
G1 Z0.5
M109 S215.0
M82
G92 E0
G1 F200 E10
G92 E0
G1 Z3
G1 F6000

G92 E0
G1 F3000 E-3.5
;LAYER_COUNT:2
;LAYER:0
M107
G0 F3600 X2.863 Y3.066 Z0.26
;TYPE:SKIRT
G1 F3000 E0
G1 F1800 X3.255 Y2.7 E0.02319
G1 X3.697 Y2.397 E0.04636
G1 X4.18 Y2.162 E0.06958
G1 X4.691 Y2.002 E0.09274
G1 X5.221 Y1.919 E0.11593
G1 X5.508 Y1.908 E0.12835
G1 X205.492 Y1.911 E8.77529
G1 X206.027 Y1.951 E8.79849
G1 X206.55 Y2.07 E8.82168
G1 X207.049 Y2.265 E8.84485
G1 X207.514 Y2.533 E8.86805
G1 X207.934 Y2.866 E8.89123
G1 X208.3 Y3.258 E8.91442
G1 X208.603 Y3.7 E8.93759
G1 X208.838 Y4.183 E8.96081
G1 X208.998 Y4.694 E8.98397
G1 X209.081 Y5.224 E9.00716
G1 X209.092 Y5.511 E9.01958
G1 X209.092 Y205.492 E17.66639
G1 X209.052 Y206.027 E17.68959
G1 X208.933 Y206.55 E17.71278
G1 X208.738 Y207.049 E17.73595
G1 X208.47 Y207.514 E17.75915
G1 X208.137 Y207.934 E17.78233
G1 X207.745 Y208.3 E17.80552
G1 X207.303 Y208.603 E17.82869
G1 X206.82 Y208.838 E17.85191
G1 X206.309 Y208.998 E17.87506
G1 X205.779 Y209.081 E17.89826
G1 X205.492 Y209.092 E17.91068
G1 X5.508 Y209.092 E26.55762
G1 X4.973 Y209.052 E26.58082
G1 X4.45 Y208.933 E26.60401
G1 X3.951 Y208.738 E26.62717
G1 X3.486 Y208.47 E26.65038
G1 X3.066 Y208.137 E26.67356
G1 X2.7 Y207.745 E26.69674
G1 X2.397 Y207.303 E26.71992
G1 X2.162 Y206.82 E26.74314
G1 X2.002 Y206.309 E26.76629
G1 X1.919 Y205.779 E26.78949
G1 X1.908 Y205.492 E26.80191
G1 X1.908 Y5.508 E35.44885
G1 X1.948 Y4.973 E35.47205
G1 X2.067 Y4.45 E35.49524
G1 X2.262 Y3.951 E35.5184
G1 X2.53 Y3.486 E35.54161
G1 X2.863 Y3.066 E35.56478
G0 F3600 X3.257 Y3.233
G1 F1800 X3.644 Y2.907 E35.58666
G1 X4.077 Y2.646 E35.60852
G1 X4.545 Y2.456 E35.63036
G1 X5.038 Y2.343 E35.65223
G1 X5.508 Y2.308 E35.67261
G1 X205.492 Y2.311 E44.31955
G1 X205.996 Y2.351 E44.34141
G1 X206.487 Y2.47 E44.36326
G1 X206.954 Y2.665 E44.38514
G1 X207.384 Y2.93 E44.40698
G1 X207.767 Y3.26 E44.42884
G1 X208.093 Y3.647 E44.45072
G1 X208.354 Y4.08 E44.47258
G1 X208.544 Y4.548 E44.49442
G1 X208.657 Y5.041 E44.51629
G1 X208.692 Y5.511 E44.53667
G1 X208.692 Y205.492 E53.18348
G1 X208.652 Y205.996 E53.20534
G1 X208.533 Y206.487 E53.22719
G1 X208.339 Y206.954 E53.24905
G1 X208.073 Y207.384 E53.27091
G1 X207.743 Y207.767 E53.29277
G1 X207.356 Y208.093 E53.31465
G1 X206.923 Y208.354 E53.33651
G1 X206.455 Y208.544 E53.35835
G1 X205.962 Y208.657 E53.38022
G1 X205.492 Y208.692 E53.4006
G1 X5.508 Y208.692 E62.04754
G1 X5.004 Y208.652 E62.0694
G1 X4.513 Y208.533 E62.09125
G1 X4.046 Y208.339 E62.11311
G1 X3.616 Y208.073 E62.13497
G1 X3.233 Y207.743 E62.15683
G1 X2.907 Y207.356 E62.17871
G1 X2.646 Y206.923 E62.20057
G1 X2.456 Y206.455 E62.22241
G1 X2.343 Y205.962 E62.24428
G1 X2.308 Y205.492 E62.26466
G1 X2.308 Y5.508 E70.9116
G1 X2.348 Y5.004 E70.93346
G1 X2.467 Y4.513 E70.95531
G1 X2.661 Y4.046 E70.97717
G1 X2.927 Y3.616 E70.99904
G1 X3.257 Y3.233 E71.02089
G1 F3000 E67.52089
G0 F3600 X5.713 Y4.834
G0 X5.713 Y5.713
G0 X5.799 Y5.731
G0 X5.8 Y5.801
;TYPE:WALL-OUTER
G1 F3000 E71.02089
G1 F1800 X5.8 Y30.951 E72.10834
G1 X30.949 Y30.951 E73.19573
G1 X30.949 Y5.801 E74.28317
G1 X5.8 Y5.801 E75.37057
G0 F3600 X5.8 Y6.001
G0 X5.7 Y6.001
G0 X5.764 Y5.796
G0 X30.979 Y5.731
G0 X31.049 Y5.801
G1 F1800 X31.049 Y30.951 E75.64243
G1 X55.699 Y30.951 E76.70825
G1 X55.699 Y5.801 E77.79569
G1 X31.049 Y5.801 E78.86151
G0 F3600 X31.049 Y6.001
G0 X30.949 Y6.001
G0 X31.008 Y5.999
G0 X31.019 Y5.796
G0 X55.729 Y5.731
G0 X55.799 Y5.801
G1 F1800 X55.799 Y30.951 E79.13337
G1 X80.699 Y30.951 E80.21
G1 X80.699 Y5.801 E81.29744
G1 X55.799 Y5.801 E82.37407
G0 F3600 X55.799 Y6.001
G0 X55.699 Y6.001
G0 X55.758 Y5.999
G0 X55.769 Y5.796
G0 X80.729 Y5.731
G0 X80.799 Y5.801
G1 F1800 X80.799 Y30.951 E82.64593
G1 X105.699 Y30.951 E83.72256
G1 X105.699 Y5.801 E84.81
G1 X80.799 Y5.801 E85.88663
G0 F3600 X80.799 Y6.001
G0 X80.699 Y6.001
G0 X80.762 Y5.956
G0 X80.77 Y5.792
G0 X105.729 Y5.731
G0 X105.799 Y5.801
G1 F1800 X105.799 Y30.951 E86.15849
G1 X130.199 Y30.951 E87.21351
G1 X130.199 Y5.801 E88.30095
G1 X105.799 Y5.801 E89.35596
G0 F3600 X105.799 Y6.001
G0 X105.799 Y5.7
G1 F1800 X130.199 Y5.7 E89.62235
G1 X130.299 Y5.7 E89.62517
G1 X155.199 Y5.7 E90.7018
G1 X155.299 Y5.7 E90.70612
G1 X179.949 Y5.7 E91.77194
G1 X180.049 Y5.7 E91.77627
G1 X205.199 Y5.7 E92.86371
G1 X205.301 Y5.701 E92.86812
G1 X205.301 Y5.801 E92.87244
G1 X205.301 Y30.951 E93.95988
G1 X205.301 Y31.051 E93.9642
G1 X205.301 Y55.7 E95.02998
G1 X205.301 Y55.8 E95.0343
G1 X205.301 Y80.7 E96.11094
G1 X205.301 Y80.8 E96.11526
G1 X205.301 Y105.2 E97.17027
G1 X205.301 Y105.3 E97.17459
G1 X205.301 Y130.2 E98.25123
G1 X205.301 Y130.3 E98.25555
G1 X205.301 Y155.2 E99.33218
G1 X205.301 Y155.3 E99.3365
G1 X205.301 Y179.951 E100.40237
G1 X205.301 Y180.051 E100.40669
G1 X205.301 Y205.201 E101.49413
G1 X205.301 Y205.301 E101.49846
G1 X205.199 Y205.301 E101.50133
G1 X180.049 Y205.301 E102.58877
G1 X179.949 Y205.301 E102.59309
G1 X155.299 Y205.301 E103.65891
G1 X155.199 Y205.301 E103.66324
G1 X130.299 Y205.301 E104.73987
G1 X130.199 Y205.301 E104.74419
G1 X105.799 Y205.301 E105.7992
G1 X105.699 Y205.301 E105.80353
G1 X80.799 Y205.301 E106.88016
G1 X80.699 Y205.301 E106.88448
G1 X55.799 Y205.301 E107.96111
G1 X55.699 Y205.301 E107.96543
G1 X31.049 Y205.301 E109.03126
G1 X30.949 Y205.301 E109.03558
G1 X5.8 Y205.301 E110.12298
G1 X5.699 Y205.301 E110.12734
G1 X5.699 Y205.201 E110.13014
G1 X5.699 Y180.051 E111.21758
G1 X5.699 Y179.951 E111.22191
G1 X5.699 Y155.3 E112.28777
G1 X5.699 Y155.2 E112.2921
G1 X5.699 Y130.3 E113.36873
G1 X5.699 Y130.2 E113.37305
G1 X5.699 Y105.3 E114.44968
G1 X5.699 Y105.2 E114.45401
G1 X5.699 Y80.8 E115.50902
G1 X5.699 Y80.7 E115.51334
G1 X5.699 Y55.8 E116.58997
G1 X5.699 Y55.7 E116.5943
G1 X5.699 Y31.051 E117.66007
G1 X5.699 Y30.951 E117.66289
G1 X5.699 Y5.801 E117.93747
G1 X5.699 Y5.699 E117.94035
G1 X5.8 Y5.699 E117.94218
G1 X30.949 Y5.699 E118.21946
G1 X31.049 Y5.699 E118.22228
G1 X55.699 Y5.699 E118.49407
G1 X55.799 Y5.699 E118.49689
G1 X80.699 Y5.699 E118.77143
G1 X80.799 Y5.699 E118.77425
G1 X105.699 Y5.699 E119.04879
G1 X105.799 Y5.7 E119.05161
G0 F3600 X105.999 Y5.7
G0 X105.999 Y5.8
G0 X130.229 Y5.731
G0 X130.299 Y5.801
G1 F1800 X130.299 Y30.951 E119.32347
G1 X155.199 Y30.951 E120.4001
G1 X155.199 Y5.801 E121.48604
G1 X130.299 Y5.801 E121.75789
G0 F3600 X130.299 Y6.001
G0 X130.199 Y6.001
G0 X130.26 Y5.977
G0 X130.269 Y5.794
G0 X155.229 Y5.731
G0 X155.299 Y5.801
G1 F1800 X155.299 Y30.951 E122.02975
G1 X179.949 Y30.951 E123.09557
G1 X179.949 Y5.801 E124.1815
G1 X155.299 Y5.801 E124.45062
G0 F3600 X155.299 Y6.001
G0 X155.199 Y6.001
G0 X155.263 Y5.796
G0 X179.979 Y5.731
G0 X180.049 Y5.801
G1 F1800 X180.049 Y30.951 E124.72248
G1 X205.199 Y30.951 E125.80842
G1 X205.199 Y5.801 E126.08572
G1 X180.049 Y5.801 E126.3603
G0 F3600 X180.049 Y6.001
G0 X179.949 Y6.001
G0 X179.979 Y30.981
G0 X180.049 Y31.051
G1 F1800 X180.049 Y55.7 E127.42608
G1 X205.199 Y55.7 E128.51201
G1 X205.199 Y31.051 E128.78379
G1 X180.049 Y31.051 E129.05565
G0 F3600 X180.049 Y31.251
G0 X179.949 Y31.251
G0 X179.979 Y55.73
G0 X180.049 Y55.8
G1 F1800 X180.049 Y80.7 E130.13228
G1 X205.199 Y80.7 E131.21821
G1 X205.199 Y55.8 E131.49276
G1 X180.049 Y55.8 E131.76462
G0 F3600 X180.049 Y56
G0 X179.949 Y56
G0 X161.662 Y55.799
G0 X155.229 Y55.73
G0 X155.299 Y55.8
G1 F1800 X155.299 Y80.7 E132.84125
G1 X179.949 Y80.7 E133.90707
G1 X179.949 Y55.8 E134.17622
G1 X155.299 Y55.8 E135.24205
G0 F3600 X155.299 Y56
G0 X155.199 Y56
G0 X155.229 Y30.981
G0 X155.299 Y31.051
G1 F1800 X155.299 Y55.7 E136.30782
G1 X179.949 Y55.7 E136.57428
G1 X179.949 Y31.051 E136.84072
G1 X155.299 Y31.051 E137.10718
G0 F3600 X155.299 Y31.251
G0 X155.199 Y31.251
G0 X136.726 Y31.051
G0 X136.646 Y31.05
G0 X130.229 Y30.981
G0 X130.299 Y31.051
G1 F1800 X130.299 Y55.7 E138.17296
G1 X155.199 Y55.7 E139.24959
G1 X155.199 Y31.051 E139.51603
G1 X130.299 Y31.051 E139.78519
G0 F3600 X130.299 Y31.251
G0 X130.199 Y31.251
G0 X112.098 Y31.05
G0 X105.729 Y30.981
G0 X105.799 Y31.051
G1 F1800 X105.799 Y55.7 E140.85097
G1 X130.199 Y55.7 E141.90598
G1 X130.199 Y31.051 E142.17242
G1 X105.799 Y31.051 E142.43618
G0 F3600 X105.799 Y31.251
G0 X105.699 Y31.251
G0 X105.729 Y55.73
G0 X105.799 Y55.8
G1 F1800 X105.799 Y80.7 E143.51281
G1 X130.199 Y80.7 E144.56782
G1 X130.199 Y55.8 E145.64445
G1 X105.799 Y55.8 E145.9082
G0 F3600 X105.799 Y56
G0 X105.699 Y56
G0 X105.763 Y55.795
G0 X130.229 Y55.73
G0 X130.299 Y55.8
G1 F1800 X130.299 Y80.7 E146.17736
G1 X155.199 Y80.7 E147.25399
G1 X155.199 Y55.8 E147.52315
G1 X130.299 Y55.8 E147.7923
G0 F3600 X130.299 Y56
G0 X130.199 Y56
G0 X130.198 Y56.669
G0 X130.229 Y80.73
G0 X130.299 Y80.8
G1 F1800 X130.299 Y105.2 E148.84732
G1 X155.199 Y105.2 E149.92395
G1 X155.199 Y80.8 E150.97896
G1 X130.299 Y80.8 E151.24812
G0 F3600 X130.299 Y81
G0 X130.199 Y81
G0 X130.229 Y105.23
G0 X130.299 Y105.3
G1 F1800 X130.299 Y130.2 E152.32475
G1 X155.199 Y130.2 E153.40138
G1 X155.199 Y105.3 E154.47801
G1 X130.299 Y105.3 E154.74716
G0 F3600 X130.299 Y105.5
G0 X130.199 Y105.5
G0 X105.729 Y105.23
G0 X105.799 Y105.3
G1 F1800 X105.799 Y130.2 E155.8238
G1 X130.199 Y130.2 E156.87881
G1 X130.199 Y105.3 E157.14796
G1 X105.799 Y105.3 E158.20298
G0 F3600 X105.799 Y105.5
G0 X105.699 Y105.5
G0 X105.698 Y105.331
G0 X105.698 Y105.259
G0 X105.698 Y105.159
G0 X105.729 Y80.73
G0 X105.799 Y80.8
G1 F1800 X105.799 Y105.2 E159.25799
G1 X130.199 Y105.2 E159.52174
G1 X130.199 Y80.8 E159.78549
G1 X105.799 Y80.8 E160.04925
G0 F3600 X105.799 Y81
G0 X105.699 Y81
G0 X87.225 Y80.799
G0 X80.729 Y80.73
G0 X80.799 Y80.8
G1 F1800 X80.799 Y105.2 E161.10426
G1 X105.699 Y105.2 E162.18089
G1 X105.699 Y80.8 E162.44464
G1 X80.799 Y80.8 E163.52127
G0 F3600 X80.799 Y81
G0 X80.699 Y81
G0 X80.729 Y105.23
G0 X80.799 Y105.3
G1 F1800 X80.799 Y130.2 E164.5979
G1 X105.699 Y130.2 E165.67453
G1 X105.699 Y105.3 E165.94369
G1 X80.799 Y105.3 E166.21285
G0 F3600 X80.799 Y105.5
G0 X80.699 Y105.5
G0 X80.698 Y106.143
G0 X80.729 Y130.23
G0 X80.799 Y130.3
G1 F1800 X80.799 Y155.2 E167.28948
G1 X105.699 Y155.2 E168.36611
G1 X105.699 Y130.3 E169.44274
G1 X80.799 Y130.3 E169.7119
G0 F3600 X80.799 Y130.5
G0 X80.699 Y130.5
G0 X80.729 Y155.23
G0 X80.799 Y155.3
G1 F1800 X80.799 Y179.951 E170.77776
G1 X105.699 Y179.951 E171.85439
G1 X105.699 Y155.3 E172.92026
G1 X80.799 Y155.3 E173.18941
G0 F3600 X80.799 Y155.5
G0 X80.699 Y155.5
G0 X80.729 Y179.981
G0 X80.799 Y180.051
G1 F1800 X80.799 Y205.201 E174.27534
G1 X105.699 Y205.201 E174.5445
G1 X105.699 Y180.051 E175.63194
G1 X80.799 Y180.051 E175.9011
G0 F3600 X80.799 Y180.251
G0 X80.699 Y180.251
G0 X62.294 Y180.051
G0 X62.222 Y180.051
G0 X55.729 Y179.981
G0 X55.799 Y180.051
G1 F1800 X55.799 Y205.201 E176.98703
G1 X80.699 Y205.201 E177.25619
G1 X80.699 Y180.051 E177.52805
G1 X55.799 Y180.051 E178.60468
G0 F3600 X55.799 Y180.251
G0 X55.699 Y180.251
G0 X37.479 Y180.051
G0 X30.979 Y179.981
G0 X31.049 Y180.051
G1 F1800 X31.049 Y205.201 E179.69061
G1 X55.699 Y205.201 E179.95706
G1 X55.699 Y180.051 E180.22892
G1 X31.049 Y180.051 E181.29474
G0 F3600 X31.049 Y180.251
G0 X30.949 Y180.251
G0 X30.979 Y155.23
G0 X31.049 Y155.3
G1 F1800 X31.049 Y179.951 E182.36061
G1 X55.699 Y179.951 E182.62706
G1 X55.699 Y155.3 E183.69293
G1 X31.049 Y155.3 E184.75875
G0 F3600 X31.049 Y155.5
G0 X30.949 Y155.5
G0 X31.012 Y155.454
G0 X31.02 Y155.291
G0 X55.729 Y155.23
G0 X55.799 Y155.3
G1 F1800 X55.799 Y179.951 E185.02521
G1 X80.699 Y179.951 E185.29437
G1 X80.699 Y155.3 E185.56084
G1 X55.799 Y155.3 E186.63747
G0 F3600 X55.799 Y155.5
G0 X55.699 Y155.5
G0 X55.698 Y155.331
G0 X55.698 Y155.259
G0 X55.698 Y155.159
G0 X55.729 Y130.23
G0 X55.799 Y130.3
G1 F1800 X55.799 Y155.2 E187.7141
G1 X80.699 Y155.2 E187.98326
G1 X80.699 Y130.3 E188.25241
G1 X55.799 Y130.3 E189.32904
G0 F3600 X55.799 Y130.5
G0 X55.699 Y130.5
G0 X37.48 Y130.3
G0 X30.979 Y130.23
G0 X31.049 Y130.3
G1 F1800 X31.049 Y155.2 E190.40567
G1 X55.699 Y155.2 E190.67213
G1 X55.699 Y130.3 E190.94129
G1 X31.049 Y130.3 E192.00711
G0 F3600 X31.049 Y130.5
G0 X30.949 Y130.5
G0 X30.948 Y130.339
G0 X30.948 Y130.259
G0 X30.948 Y130.159
G0 X30.979 Y105.23
G0 X31.049 Y105.3
G1 F1800 X31.049 Y130.2 E193.08374
G1 X55.699 Y130.2 E193.35019
G1 X55.699 Y105.3 E194.42682
G1 X31.049 Y105.3 E195.49265
G0 F3600 X31.049 Y105.5
G0 X30.949 Y105.5
G0 X30.948 Y105.339
G0 X30.948 Y105.259
G0 X30.948 Y105.159
G0 X30.979 Y80.73
G0 X31.049 Y80.8
G1 F1800 X31.049 Y105.2 E196.54766
G1 X55.699 Y105.2 E196.81411
G1 X55.699 Y80.8 E197.86912
G1 X31.049 Y80.8 E198.93495
G0 F3600 X31.049 Y81
G0 X30.949 Y81
G0 X31.013 Y80.795
G0 X55.729 Y80.73
G0 X55.799 Y80.8
G1 F1800 X55.799 Y105.2 E199.1987
G1 X80.699 Y105.2 E200.27533
G1 X80.699 Y80.8 E200.53908
G1 X55.799 Y80.8 E201.61571
G0 F3600 X55.799 Y81
G0 X55.699 Y81
G0 X55.729 Y105.23
G0 X55.799 Y105.3
G1 F1800 X55.799 Y130.2 E201.88487
G1 X80.699 Y130.2 E202.15403
G1 X80.699 Y105.3 E202.42319
G1 X55.799 Y105.3 E202.69234
G0 F3600 X55.799 Y105.5
G0 X55.699 Y105.5
G0 X55.698 Y105.339
G0 X55.698 Y105.259
G0 X55.698 Y105.159
G0 X55.729 Y55.73
G0 X55.799 Y55.8
G1 F1800 X55.799 Y80.7 E203.76897
G1 X80.699 Y80.7 E204.03813
G1 X80.699 Y55.8 E205.11476
G1 X55.799 Y55.8 E206.19139
G0 F3600 X55.799 Y56
G0 X55.699 Y56
G0 X55.729 Y30.981
G0 X55.799 Y31.051
G1 F1800 X55.799 Y55.7 E207.25717
G1 X80.699 Y55.7 E207.52633
G1 X80.699 Y31.051 E208.59211
G1 X55.799 Y31.051 E208.86126
G0 F3600 X55.799 Y31.251
G0 X55.699 Y31.251
G0 X37.48 Y31.051
G0 X37.408 Y31.051
G0 X30.979 Y30.981
G0 X31.049 Y31.051
G1 F1800 X31.049 Y55.7 E209.92704
G1 X55.699 Y55.7 E210.99286
G1 X55.699 Y31.051 E211.25931
G1 X31.049 Y31.051 E211.52576
G0 F3600 X31.049 Y31.251
G0 X30.949 Y31.251
G0 X30.979 Y55.73
G0 X31.049 Y55.8
G1 F1800 X31.049 Y80.7 E212.60239
G1 X55.699 Y80.7 E212.86885
G1 X55.699 Y55.8 E213.138
G1 X31.049 Y55.8 E213.40446
G0 F3600 X31.049 Y56
G0 X30.949 Y56
G0 X12.291 Y55.799
G0 X5.73 Y55.73
G0 X5.8 Y55.8
G1 F1800 X5.8 Y80.7 E213.67631
G1 X30.949 Y80.7 E214.76371
G1 X30.949 Y55.8 E215.03286
G1 X5.8 Y55.8 E216.11876
G0 F3600 X5.8 Y56
G0 X5.7 Y56
G0 X5.73 Y30.981
G0 X5.8 Y31.051
G1 F1800 X5.8 Y55.7 E216.38786
G1 X30.949 Y55.7 E216.65971
G1 X30.949 Y31.051 E216.92616
G1 X5.8 Y31.051 E217.19801
G0 F3600 X5.8 Y31.251
G0 X5.7 Y31.251
G0 X5.73 Y80.73
G0 X5.8 Y80.8
G1 F1800 X5.8 Y105.2 E217.4644
G1 X30.949 Y105.2 E218.55179
G1 X30.949 Y80.8 E218.81555
G1 X5.8 Y80.8 E219.0874
G0 F3600 X5.8 Y81
G0 X5.7 Y81
G0 X5.73 Y105.23
G0 X5.8 Y105.3
G1 F1800 X5.8 Y130.2 E219.35925
G1 X30.949 Y130.2 E220.44664
G1 X30.949 Y105.3 E220.7158
G1 X5.8 Y105.3 E220.98765
G0 F3600 X5.8 Y105.5
G0 X5.7 Y105.5
G0 X5.73 Y130.23
G0 X5.8 Y130.3
G1 F1800 X5.8 Y155.2 E221.2595
G1 X30.949 Y155.2 E222.3469
G1 X30.949 Y130.3 E222.61605
G1 X5.8 Y130.3 E222.8879
G0 F3600 X5.8 Y130.5
G0 X5.7 Y130.5
G0 X5.73 Y155.23
G0 X5.8 Y155.3
G1 F1800 X5.8 Y179.951 E223.15703
G1 X30.949 Y179.951 E224.24443
G1 X30.949 Y155.3 E224.5109
G1 X5.8 Y155.3 E224.78275
G0 F3600 X5.8 Y155.5
G0 X5.7 Y155.5
G0 X5.73 Y179.981
G0 X5.8 Y180.051
G1 F1800 X5.8 Y205.201 E225.05732
G1 X30.949 Y205.201 E225.32917
G1 X30.949 Y180.051 E225.60103
G1 X5.8 Y180.051 E225.87288
G0 F3600 X5.8 Y180.251
G0 X5.7 Y180.251
G0 X5.764 Y180.046
G0 X105.729 Y179.981
G0 X105.799 Y180.051
G1 F1800 X105.799 Y205.201 E226.14474
G1 X130.199 Y205.201 E226.4085
G1 X130.199 Y180.051 E227.49594
G1 X105.799 Y180.051 E228.55095
G0 F3600 X105.799 Y180.251
G0 X105.699 Y180.251
G0 X105.758 Y180.249
G0 X105.769 Y180.046
G0 X130.229 Y179.981
G0 X130.299 Y180.051
G1 F1800 X130.299 Y205.201 E228.82281
G1 X155.199 Y205.201 E229.09196
G1 X155.199 Y180.051 E230.1794
G1 X130.299 Y180.051 E231.25604
G0 F3600 X130.299 Y180.251
G0 X130.199 Y180.251
G0 X130.229 Y155.23
G0 X130.299 Y155.3
G1 F1800 X130.299 Y179.951 E232.3219
G1 X155.199 Y179.951 E232.59106
G1 X155.199 Y155.3 E233.65692
G1 X130.299 Y155.3 E234.73355
G0 F3600 X130.299 Y155.5
G0 X130.199 Y155.5
G0 X112.098 Y155.3
G0 X112.018 Y155.299
G0 X105.729 Y155.23
G0 X105.799 Y155.3
