;FLAVOR:Marlin
;TIME:290
;Filament used: 0.310304m
;Layer height: 0.2
;Generated with Cura_SteamEngine 3.5.1
M82 ;absolute extrusion mode
;Gcode by Cura
G90
M106 S255
G28 X Y
G1 X50
M109 R90
G28
M104 S215.0
G29
M107
G1 X100 Y20 F3000
G1 Z0.5
M109 S215.0
M82
G92 E0
G1 F200 E10
G92 E0
G1 Z3
G1 F6000

G92 E0
G1 F3000 E-3.5
;LAYER_COUNT:2
;LAYER:0
M107
G0 F3600 X4.864 Y5.067 Z0.26
;TYPE:SKIRT
G1 F3000 E0
G1 F1800 X5.256 Y4.701 E0.02319
G1 X5.698 Y4.398 E0.04636
G1 X6.18 Y4.163 E0.06955
G1 X6.692 Y4.003 E0.09274
G1 X7.222 Y3.92 E0.11593
G1 X7.509 Y3.909 E0.12835
G1 X28.495 Y3.91 E1.03575
G1 X29.03 Y3.95 E1.05895
G1 X29.553 Y4.069 E1.08214
G1 X30.014 Y4.246 E1.10349
G1 X34.692 Y6.423 E1.32659
G1 X37.126 Y7.442 E1.44068
G1 X42.305 Y9.352 E1.67935
G1 X47.518 Y10.946 E1.91506
G1 X52.861 Y12.255 E2.15291
G1 X55.464 Y12.774 E2.26767
G1 X60.888 Y13.623 E2.50505
G1 X66.323 Y14.162 E2.74121
G1 X69.007 Y14.313 E2.85744
G1 X73.114 Y14.4 E3.03506
G1 X140.635 Y14.36 E5.95455
G1 X146.073 Y14.052 E6.19005
G1 X151.499 Y13.436 E6.42617
G1 X156.87 Y12.515 E6.66179
G1 X162.182 Y11.293 E6.89747
G1 X164.785 Y10.577 E7.0142
G1 X170.004 Y8.898 E7.25125
G1 X175.083 Y6.942 E7.48658
G1 X181.006 Y4.236 E7.76814
G1 X181.509 Y4.05 E7.79133
G1 X182.034 Y3.941 E7.81451
G1 X182.502 Y3.91 E7.83479
G1 X203.491 Y3.909 E8.74232
G1 X204.026 Y3.949 E8.76552
G1 X204.549 Y4.068 E8.78871
G1 X205.048 Y4.263 E8.81187
G1 X205.513 Y4.53 E8.83506
G1 X205.933 Y4.864 E8.85826
G1 X206.299 Y5.256 E8.88145
G1 X206.602 Y5.698 E8.90462
G1 X206.837 Y6.18 E8.9278
G1 X206.997 Y6.692 E8.951
G1 X207.08 Y7.222 E8.97419
G1 X207.091 Y7.509 E8.98661
G1 X207.09 Y28.495 E9.89401
G1 X207.05 Y29.03 E9.9172
G1 X206.931 Y29.553 E9.9404
G1 X206.757 Y30.008 E9.96146
G1 X204.71 Y34.428 E10.17207
G1 X203.699 Y36.845 E10.28535
G1 X203.699 Y36.846 E10.2854
G1 X201.787 Y42.031 E10.52434
G1 X200.193 Y47.244 E10.76005
G1 X198.884 Y52.587 E10.9979
G1 X198.365 Y55.19 E11.11266
G1 X197.518 Y60.598 E11.34935
G1 X196.977 Y66.07 E11.5871
G1 X196.827 Y68.734 E11.70247
G1 X196.74 Y72.836 E11.87987
G1 X196.78 Y140.924 E14.82387
G1 X197.088 Y146.361 E15.05934
G1 X197.704 Y151.787 E15.29545
G1 X198.625 Y157.158 E15.53107
G1 X199.847 Y162.47 E15.76675
G1 X200.563 Y165.073 E15.88348
G1 X202.242 Y170.292 E16.12053
G1 X204.2 Y175.378 E16.35618
G1 X206.766 Y181.014 E16.62394
G1 X206.952 Y181.517 E16.64712
G1 X207.06 Y182.042 E16.6703
G1 X207.09 Y182.505 E16.69036
G1 X207.09 Y203.491 E17.59776
G1 X207.05 Y204.026 E17.62095
G1 X206.931 Y204.549 E17.64415
G1 X206.736 Y205.048 E17.66731
G1 X206.468 Y205.513 E17.69052
G1 X206.135 Y205.933 E17.71369
G1 X205.743 Y206.299 E17.73688
G1 X205.301 Y206.602 E17.76005
G1 X204.818 Y206.837 E17.78328
G1 X204.307 Y206.997 E17.80643
G1 X203.777 Y207.08 E17.82962
G1 X203.49 Y207.091 E17.84204
G1 X182.505 Y207.09 E18.74939
G1 X181.97 Y207.05 E18.77259
G1 X181.447 Y206.931 E18.79578
G1 X181 Y206.76 E18.81648
G1 X176.858 Y204.853 E19.01364
G1 X174.417 Y203.832 E19.12804
G1 X169.238 Y201.923 E19.3667
G1 X164.025 Y200.33 E19.60239
G1 X158.685 Y199.023 E19.8401
G1 X156.073 Y198.502 E19.95526
G1 X150.671 Y197.657 E20.19168
G1 X145.196 Y197.116 E20.42956
G1 X142.533 Y196.966 E20.54488
G1 X138.444 Y196.88 E20.72172
G1 X69.79 Y196.92 E23.6902
G1 X64.352 Y197.228 E23.9257
G1 X58.926 Y197.844 E24.16182
G1 X53.555 Y198.765 E24.39744
G1 X48.243 Y199.987 E24.63312
G1 X45.64 Y200.703 E24.74985
G1 X40.421 Y202.382 E24.9869
G1 X35.35 Y204.335 E25.22186
G1 X29.984 Y206.768 E25.47661
G1 X29.48 Y206.952 E25.49981
G1 X28.955 Y207.06 E25.52299
G1 X28.497 Y207.089 E25.54283
G1 X7.509 Y207.091 E26.45031
G1 X6.975 Y207.051 E26.47347
G1 X6.452 Y206.932 E26.49666
G1 X5.952 Y206.737 E26.51986
G1 X5.487 Y206.47 E26.54305
G1 X5.067 Y206.136 E26.56625
G1 X4.701 Y205.744 E26.58944
G1 X4.398 Y205.302 E26.61261
G1 X4.163 Y204.82 E26.6358
G1 X4.003 Y204.308 E26.65899
G1 X3.92 Y203.778 E26.68219
G1 X3.909 Y203.491 E26.6946
G1 X3.91 Y182.503 E27.60209
G1 X3.95 Y181.968 E27.62528
G1 X4.069 Y181.445 E27.64847
G1 X4.22 Y181.041 E27.66712
G1 X7.192 Y174.351 E27.98365
G1 X9.077 Y169.238 E28.21927
G1 X10.67 Y164.025 E28.45496
G1 X11.977 Y158.685 E28.69267
G1 X12.498 Y156.073 E28.80783
G1 X13.343 Y150.671 E29.04424
G1 X13.884 Y145.196 E29.28212
G1 X14.034 Y142.533 E29.39745
G1 X14.12 Y138.444 E29.57429
G1 X14.08 Y69.789 E32.54281
G1 X13.772 Y64.351 E32.77831
G1 X13.156 Y58.925 E33.01443
G1 X12.236 Y53.558 E33.24987
G1 X11.011 Y48.238 E33.48592
G1 X10.297 Y45.64 E33.60242
G1 X8.618 Y40.421 E33.83947
G1 X6.665 Y35.35 E34.07443
G1 X4.232 Y29.984 E34.32918
G1 X4.048 Y29.48 E34.35238
G1 X3.94 Y28.955 E34.37555
G1 X3.911 Y28.497 E34.3954
G1 X3.909 Y7.509 E35.30288
G1 X3.949 Y6.975 E35.32603
G1 X4.068 Y6.452 E35.34922
G1 X4.263 Y5.952 E35.37243
G1 X4.53 Y5.487 E35.39561
G1 X4.864 Y5.067 E35.41882
G0 F3600 X5.258 Y5.234
G1 F1800 X5.645 Y4.908 E35.44069
G1 X6.077 Y4.647 E35.46252
G1 X6.546 Y4.457 E35.4844
G1 X7.039 Y4.344 E35.50627
G1 X7.509 Y4.309 E35.52665
G1 X28.495 Y4.31 E36.43404
G1 X28.999 Y4.35 E36.4559
G1 X29.491 Y4.469 E36.47779
G1 X29.845 Y4.609 E36.49425
G1 X34.517 Y6.783 E36.71706
G1 X37.001 Y7.823 E36.83349
G1 X42.17 Y9.73 E37.07172
G1 X47.411 Y11.332 E37.30868
G1 X52.78 Y12.648 E37.5477
G1 X55.398 Y13.169 E37.66311
G1 X60.822 Y14.019 E37.9005
G1 X66.285 Y14.56 E38.13787
G1 X69.006 Y14.713 E38.2557
G1 X73.106 Y14.8 E38.43302
G1 X140.64 Y14.76 E41.35307
G1 X146.104 Y14.45 E41.5897
G1 X151.557 Y13.832 E41.82699
G1 X156.955 Y12.906 E42.0638
G1 X162.264 Y11.684 E42.29935
G1 X164.915 Y10.955 E42.41823
G1 X170.134 Y9.277 E42.65527
G1 X175.228 Y7.315 E42.89129
G1 X181.172 Y4.599 E43.17386
G1 X181.647 Y4.426 E43.19572
G1 X182.143 Y4.33 E43.21756
G1 X182.502 Y4.31 E43.23311
G1 X203.491 Y4.309 E44.14063
G1 X203.995 Y4.349 E44.1625
G1 X204.486 Y4.468 E44.18434
G1 X204.953 Y4.662 E44.2062
G1 X205.383 Y4.928 E44.22807
G1 X205.766 Y5.258 E44.24993
G1 X206.092 Y5.645 E44.27181
G1 X206.353 Y6.078 E44.29367
G1 X206.543 Y6.546 E44.31551
G1 X206.656 Y7.039 E44.33737
G1 X206.691 Y7.509 E44.35775
G1 X206.69 Y28.495 E45.26515
G1 X206.65 Y28.999 E45.28701
G1 X206.531 Y29.491 E45.3089
G1 X206.394 Y29.84 E45.32511
G1 X204.346 Y34.264 E45.5359
G1 X203.319 Y36.718 E45.65092
G1 X201.409 Y41.896 E45.88955
G1 X199.807 Y47.137 E46.12651
G1 X198.491 Y52.506 E46.36553
G1 X197.97 Y55.124 E46.48095
G1 X197.12 Y60.549 E46.71838
G1 X196.58 Y66.008 E46.95557
G1 X196.427 Y68.732 E47.07353
G1 X196.34 Y72.806 E47.24973
G1 X196.38 Y140.929 E50.19524
G1 X196.69 Y146.392 E50.43183
G1 X197.308 Y151.845 E50.66912
G1 X198.234 Y157.243 E50.90593
G1 X199.456 Y162.552 E51.14148
G1 X200.185 Y165.203 E51.26036
G1 X201.863 Y170.422 E51.4974
G1 X203.83 Y175.53 E51.73407
G1 X206.402 Y181.179 E52.00244
G1 X206.575 Y181.654 E52.0243
G1 X206.67 Y182.151 E52.04618
G1 X206.69 Y182.505 E52.06151
G1 X206.69 Y203.491 E52.96891
G1 X206.65 Y203.995 E52.99077
G1 X206.531 Y204.486 E53.01261
G1 X206.337 Y204.953 E53.03448
G1 X206.071 Y205.383 E53.05634
G1 X205.741 Y205.766 E53.0782
G1 X205.354 Y206.092 E53.10008
G1 X204.921 Y206.353 E53.12194
G1 X204.453 Y206.543 E53.14378
G1 X203.96 Y206.656 E53.16565
G1 X203.49 Y206.691 E53.18603
G1 X182.505 Y206.69 E54.09338
G1 X182.001 Y206.65 E54.11524
G1 X181.509 Y206.531 E54.13713
G1 X181.167 Y206.397 E54.15301
G1 X177.012 Y204.484 E54.35079
G1 X174.563 Y203.46 E54.46556
G1 X174.56 Y203.459 E54.4657
G1 X169.35 Y201.539 E54.70578
G1 X164.132 Y199.944 E54.9417
G1 X158.763 Y198.63 E55.1807
G1 X156.167 Y198.112 E55.29516
G1 X150.703 Y197.258 E55.53428
G1 X145.258 Y196.719 E55.77086
G1 X142.535 Y196.566 E55.88879
G1 X138.451 Y196.48 E56.06541
G1 X69.785 Y196.52 E59.0344
G1 X64.321 Y196.83 E59.27104
G1 X58.868 Y197.448 E59.50832
G1 X53.47 Y198.374 E59.74513
G1 X48.161 Y199.596 E59.98069
G1 X45.51 Y200.325 E60.09957
G1 X40.291 Y202.003 E60.3366
G1 X35.184 Y203.97 E60.57323
G1 X29.819 Y206.403 E60.82795
G1 X29.343 Y206.575 E60.84983
G1 X28.846 Y206.67 E60.87171
G1 X28.497 Y206.689 E60.88682
G1 X7.509 Y206.691 E61.7943
G1 X7.005 Y206.651 E61.81616
G1 X6.514 Y206.532 E61.83801
G1 X6.047 Y206.338 E61.85987
G1 X5.617 Y206.072 E61.88174
G1 X5.234 Y205.742 E61.90359
G1 X4.908 Y205.355 E61.92547
G1 X4.647 Y204.923 E61.9473
G1 X4.457 Y204.454 E61.96918
G1 X4.344 Y203.961 E61.99105
G1 X4.309 Y203.491 E62.01142
G1 X4.31 Y182.503 E62.91891
G1 X4.35 Y181.999 E62.94077
G1 X4.469 Y181.507 E62.96265
G1 X4.586 Y181.204 E62.9767
G1 X7.557 Y174.516 E63.29312
G1 X9.461 Y169.35 E63.53118
G1 X11.056 Y164.132 E63.7671
G1 X12.37 Y158.763 E64.0061
G1 X12.888 Y156.167 E64.12056
G1 X13.742 Y150.703 E64.35968
G1 X14.281 Y145.258 E64.59626
G1 X14.434 Y142.535 E64.71419
G1 X14.52 Y138.472 E64.8899
G1 X14.48 Y69.784 E67.85985
G1 X14.17 Y64.32 E68.09648
G1 X13.552 Y58.867 E68.33377
G1 X12.626 Y53.469 E68.57058
G1 X11.404 Y48.161 E68.80609
G1 X10.675 Y45.51 E68.92497
G1 X8.997 Y40.291 E69.162
G1 X7.03 Y35.184 E69.39863
G1 X4.597 Y29.819 E69.65335
G1 X4.425 Y29.343 E69.67523
G1 X4.33 Y28.846 E69.69711
G1 X4.311 Y28.497 E69.71222
G1 X4.309 Y7.509 E70.6197
G1 X4.349 Y7.005 E70.64156
G1 X4.468 Y6.514 E70.66341
G1 X4.662 Y6.047 E70.68527
G1 X4.928 Y5.617 E70.70714
G1 X5.258 Y5.234 E70.729
G1 F3000 E67.229
G0 F3600 X8.114 Y6.835
G0 X8.114 Y8.114
G0 X27.83 Y27.83
G0 X27.9 Y27.9
;TYPE:WALL-INNER
G1 F3000 E70.729
G1 F1800 X8.1 Y27.9 E71.58511
G1 X8.1 Y8.1 E72.44123
G1 X27.9 Y8.1 E73.29734
G1 X27.9 Y27.9 E74.15346
G1 F3000 E70.65346
G0 F3600 X27.83 Y27.83
G0 X27.886 Y27.886
G0 X29.165 Y27.886
G0 X95.614 Y94.335
G0 X95.614 Y95.614
G0 X115.33 Y115.33
G0 X115.4 Y115.4
G1 F3000 E74.15346
G1 F1800 X95.6 Y115.4 E75.00957
G1 X95.6 Y95.6 E75.86569
G1 X115.4 Y95.6 E76.72181
G1 X115.4 Y115.4 E77.57792
G1 F3000 E74.07792
G0 F3600 X115.33 Y115.33
G0 X115.386 Y115.386
G0 X116.665 Y115.386
G0 X183.114 Y181.835
G0 X183.114 Y183.114
G0 X202.83 Y202.83
G0 X202.9 Y202.9
G1 F3000 E77.57792
G1 F1800 X183.1 Y202.9 E78.43404
G1 X183.1 Y183.1 E79.29015
G1 X202.9 Y183.1 E80.14627
G1 X202.9 Y202.9 E81.00239
G1 F3000 E77.50239
G0 F3600 X202.83 Y202.83
G0 X183.12 Y202.83
G0 X181.835 Y202.83
G0 X29.165 Y202.83
G0 X27.88 Y202.83
G0 X27.83 Y202.83
G0 X27.9 Y202.9
G1 F3000 E81.00239
G1 F1800 X8.1 Y202.9 E81.8585
G1 X8.1 Y183.1 E82.71462
G1 X27.9 Y183.1 E83.57073
G1 X27.9 Y202.9 E84.42685
G1 F3000 E80.92685
G0 F3600 X27.83 Y202.83
G0 X27.886 Y183.114
G0 X27.886 Y181.835
G0 X94.371 Y115.348
G0 X94.402 Y115.317
G0 X115.317 Y94.402
G0 X115.348 Y94.371
G0 X181.835 Y27.886
G0 X183.114 Y27.886
G0 X202.83 Y27.83
G0 X202.9 Y27.9
G1 F3000 E84.42685
G1 F1800 X183.1 Y27.9 E85.28297
G1 X183.1 Y8.1 E86.13908
G1 X202.9 Y8.1 E86.9952
G1 X202.9 Y27.9 E87.85131
G0 F3600 X202.83 Y27.83
G0 X183.17 Y8.17
G0 X182.7 Y7.7
;TYPE:WALL-OUTER
G1 F1800 X203.3 Y7.7 E88.74202
G1 X203.3 Y28.3 E89.63273
G1 X182.7 Y28.3 E90.52343
G1 X182.7 Y7.7 E91.41414
G0 F3600 X182.9 Y7.7
G1 F3000 E87.91414
G0 F3600 X183.17 Y8.17
G0 X183.114 Y27.886
G0 X181.835 Y27.886
G0 X115.386 Y94.335
G0 X115.386 Y95.614
G0 X95.67 Y115.33
G0 X95.2 Y115.8
G1 F3000 E91.41414
G1 F1800 X95.2 Y95.2 E92.30484
G1 X115.8 Y95.2 E93.19555
G1 X115.8 Y115.8 E94.08626
G1 X95.2 Y115.8 E94.97696
G0 F3600 X95.2 Y115.6
G1 F3000 E91.47696
G0 F3600 X95.67 Y115.33
G0 X95.614 Y115.386
G0 X94.335 Y115.386
G0 X27.886 Y181.835
G0 X27.886 Y183.114
G0 X8.17 Y202.83
G0 X7.7 Y203.3
G1 F3000 E94.97696
G1 F1800 X7.7 Y182.7 E95.86767
G1 X28.3 Y182.7 E96.75838
G1 X28.3 Y203.3 E97.64908
G1 X7.7 Y203.3 E98.53979
G0 F3600 X7.7 Y203.1
G1 F3000 E95.03979
G0 F3600 X8.17 Y202.83
G0 X8.17 Y183.12
G0 X8.17 Y181.835
G0 X8.17 Y29.165
G0 X8.17 Y27.88
G0 X8.17 Y27.83
G0 X7.7 Y28.3
G1 F3000 E98.53979
G1 F1800 X7.7 Y7.7 E99.4305
G1 X28.3 Y7.7 E100.3212
G1 X28.3 Y28.3 E101.21191
G1 X7.7 Y28.3 E102.10262
G0 F3600 X7.7 Y28.1
G1 F3000 E98.60262
G0 F3600 X8.17 Y27.83
G0 X27.886 Y27.886
G0 X29.165 Y27.886
G0 X95.65 Y94.371
G0 X95.681 Y94.402
G0 X116.596 Y115.317
G0 X116.627 Y115.348
G0 X183.114 Y181.835
G0 X183.114 Y183.114
G0 X202.83 Y183.17
G0 X203.3 Y182.7
G1 F3000 E102.10262
G1 F1800 X203.3 Y203.3 E102.99332
G1 X182.7 Y203.3 E103.88403
G1 X182.7 Y182.7 E104.77473
G1 X203.3 Y182.7 E105.66544
G0 F3600 X203.3 Y182.9
G0 X202.83 Y183.17
G0 X202.51 Y183.49
;TYPE:SKIN
G1 F1800 X202.51 Y202.51 E106.48783
G1 X183.49 Y202.51 E107.31022
G1 X183.49 Y183.49 E108.13261
G1 X202.51 Y183.49 E108.955
G0 F3600 X202.329 Y184.227
G1 F1800 X201.772 Y183.67 E108.98906
G0 F3600 X201.206 Y183.67
G1 F1800 X202.329 Y184.793 E109.05773
G0 F3600 X202.329 Y185.358
G1 F1800 X200.64 Y183.67 E109.16098
G0 F3600 X200.075 Y183.67
G1 F1800 X202.329 Y185.924 E109.29881
G0 F3600 X202.329 Y186.49
G1 F1800 X199.509 Y183.67 E109.47124
G0 F3600 X198.943 Y183.67
G1 F1800 X202.329 Y187.055 E109.67826
G0 F3600 X202.329 Y187.621
G1 F1800 X198.378 Y183.67 E109.91986
G0 F3600 X197.812 Y183.67
G1 F1800 X202.329 Y188.187 E110.19606
G0 F3600 X202.329 Y188.752
G1 F1800 X197.246 Y183.67 E110.50685
G0 F3600 X196.681 Y183.67
G1 F1800 X202.329 Y189.318 E110.85221
G0 F3600 X202.329 Y189.884
G1 F1800 X196.115 Y183.67 E111.23218
G0 F3600 X195.549 Y183.67
G1 F1800 X202.329 Y190.45 E111.64677
G0 F3600 X202.329 Y191.015
G1 F1800 X194.983 Y183.67 E112.09593
G0 F3600 X194.418 Y183.67
G1 F1800 X202.329 Y191.581 E112.57967
G0 F3600 X202.329 Y192.147
G1 F1800 X193.852 Y183.67 E113.09802
G0 F3600 X193.286 Y183.67
G1 F1800 X202.329 Y192.712 E113.65095
G0 F3600 X202.329 Y193.278
G1 F1800 X192.721 Y183.67 E114.23847
G0 F3600 X192.155 Y183.67
G1 F1800 X202.329 Y193.844 E114.86058
G0 F3600 X202.329 Y194.409
G1 F1800 X191.589 Y183.67 E115.51728
G0 F3600 X191.024 Y183.67
G1 F1800 X202.329 Y194.975 E116.20856
G0 F3600 X202.329 Y195.541
G1 F1800 X190.458 Y183.67 E116.93445
G0 F3600 X189.892 Y183.67
G1 F1800 X202.329 Y196.106 E117.69492
G0 F3600 X202.329 Y196.672
G1 F1800 X189.327 Y183.67 E118.48996
G0 F3600 X188.761 Y183.67
G1 F1800 X202.329 Y197.238 E119.31962
G0 F3600 X202.329 Y197.803
G1 F1800 X188.195 Y183.67 E120.18386
G0 F3600 X187.63 Y183.67
G1 F1800 X202.329 Y198.369 E121.08267
G0 F3600 X202.329 Y198.935
G1 F1800 X187.064 Y183.67 E122.01609
G0 F3600 X186.498 Y183.67
G1 F1800 X202.329 Y199.5 E122.9841
G0 F3600 X202.329 Y200.066
G1 F1800 X185.933 Y183.67 E123.98668
G0 F3600 X185.367 Y183.67
G1 F1800 X202.329 Y200.632 E125.02387
G0 F3600 X202.329 Y201.198
G1 F1800 X184.801 Y183.67 E126.09568
G0 F3600 X184.235 Y183.67
G1 F1800 X202.329 Y201.763 E127.20206
G0 F3600 X202.329 Y202.329
G1 F1800 X183.669 Y183.669 E128.34308
G0 F3600 X183.669 Y184.235
G1 F1800 X201.763 Y202.329 E129.44949
G0 F3600 X201.198 Y202.329
G1 F1800 X183.669 Y184.8 E130.52136
G0 F3600 X183.669 Y185.366
G1 F1800 X200.632 Y202.329 E131.55861
G0 F3600 X200.066 Y202.329
G1 F1800 X183.669 Y185.932 E132.56125
G0 F3600 X183.669 Y186.497
G1 F1800 X199.5 Y202.329 E133.52932
G0 F3600 X198.935 Y202.329
G1 F1800 X183.669 Y187.063 E134.4628
G0 F3600 X183.669 Y187.629
G1 F1800 X198.369 Y202.329 E135.36168
G0 F3600 X197.803 Y202.329
G1 F1800 X183.669 Y188.195 E136.22595
G0 F3600 X183.669 Y188.76
G1 F1800 X197.238 Y202.329 E137.05566
G0 F3600 X196.672 Y202.329
G1 F1800 X183.669 Y189.326 E137.85077
G0 F3600 X183.669 Y189.892
G1 F1800 X196.106 Y202.329 E138.61127
G0 F3600 X195.541 Y202.329
G1 F1800 X183.669 Y190.457 E139.33722
G0 F3600 X183.669 Y191.023
G1 F1800 X194.975 Y202.329 E140.02856
G0 F3600 X194.409 Y202.329
G1 F1800 X183.669 Y191.589 E140.68529
G0 F3600 X183.669 Y192.154
G1 F1800 X193.844 Y202.329 E141.30747
G0 F3600 X193.278 Y202.329
G1 F1800 X183.669 Y192.72 E141.89504
G0 F3600 X183.669 Y193.286
G1 F1800 X192.712 Y202.329 E142.448
G0 F3600 X192.147 Y202.329
G1 F1800 X183.669 Y193.851 E142.96641
G0 F3600 X183.669 Y194.417
G1 F1800 X191.581 Y202.329 E143.45022
G0 F3600 X191.015 Y202.329
G1 F1800 X183.669 Y194.983 E143.89941
G0 F3600 X183.669 Y195.548
G1 F1800 X190.45 Y202.329 E144.31405
G0 F3600 X189.884 Y202.329
G1 F1800 X183.669 Y196.114 E144.69409
G0 F3600 X183.669 Y196.68
G1 F1800 X189.318 Y202.329 E145.03951
G0 F3600 X188.752 Y202.329
G1 F1800 X183.669 Y197.246 E145.35033
G0 F3600 X183.669 Y197.811
G1 F1800 X188.187 Y202.329 E145.6266
G0 F3600 X187.621 Y202.329
G1 F1800 X183.669 Y198.377 E145.86825
