;FLAVOR:Marlin
;TIME:2334
;Filament used: 2.34796m
;Layer height: 0.2
;Generated with Cura_SteamEngine 3.5.1
M82 ;absolute extrusion mode
;Gcode by Cura
G90
M106 S255
G28 X Y
G1 X50
M109 R90
G28
M104 S215.0
G29
M107
G1 X100 Y20 F3000
G1 Z0.5
M109 S215.0
M82
G92 E0
G1 F200 E10
G92 E0
G1 Z3
G1 F6000

G92 E0
G1 F3000 E-3.5
;LAYER_COUNT:10
;LAYER:0
M107
G0 F3600 X12.506 Y12.93 Z0.26
;TYPE:SKIRT
G1 F3000 E0
G1 F1800 X12.987 Y12.457 E0.02917
G1 X13.396 Y12.111 E0.05233
G1 X13.852 Y11.829 E0.07551
G1 X14.345 Y11.618 E0.0987
G1 X14.864 Y11.483 E0.12189
G1 X15.511 Y11.424 E0.14998
G1 X195.503 Y11.43 E7.93251
G1 X196.038 Y11.47 E7.9557
G1 X196.561 Y11.589 E7.97889
G1 X197.06 Y11.784 E8.00206
G1 X197.525 Y12.052 E8.02526
G1 X198.059 Y12.495 E8.05526
G1 X198.531 Y12.971 E8.08425
G1 X198.879 Y13.379 E8.10744
G1 X199.163 Y13.834 E8.13063
G1 X199.376 Y14.326 E8.15381
G1 X199.514 Y14.845 E8.17703
G1 X199.575 Y15.506 E8.20573
G1 X199.576 Y195.495 E15.98813
G1 X199.536 Y196.03 E16.01132
G1 X199.417 Y196.553 E16.03452
G1 X199.222 Y197.052 E16.05768
G1 X198.954 Y197.517 E16.08089
G1 X198.522 Y198.041 E16.11025
G1 X198.042 Y198.521 E16.1396
G1 X197.635 Y198.87 E16.16278
G1 X197.181 Y199.156 E16.18598
G1 X196.69 Y199.371 E16.20916
G1 X196.172 Y199.511 E16.23236
G1 X195.496 Y199.575 E16.26172
G1 X15.504 Y199.576 E24.04425
G1 X14.969 Y199.536 E24.06744
G1 X14.446 Y199.417 E24.09063
G1 X13.947 Y199.222 E24.1138
G1 X13.482 Y198.954 E24.137
G1 X12.956 Y198.519 E24.16652
G1 X12.476 Y198.038 E24.1959
G1 X12.126 Y197.631 E24.21911
G1 X11.841 Y197.177 E24.24229
G1 X11.627 Y196.686 E24.26545
G1 X11.487 Y196.168 E24.28865
G1 X11.424 Y195.495 E24.31787
G1 X11.43 Y15.497 E32.10066
G1 X11.47 Y14.962 E32.12386
G1 X11.589 Y14.439 E32.14705
G1 X11.784 Y13.94 E32.17021
G1 X12.052 Y13.475 E32.19342
G1 X12.506 Y12.93 E32.22409
G0 F3600 X12.786 Y13.215
G1 F1800 X13.267 Y12.742 E32.25326
G1 X13.655 Y12.417 E32.27514
G1 X14.088 Y12.158 E32.29696
G1 X14.558 Y11.969 E32.31886
G1 X15.051 Y11.857 E32.34072
G1 X15.511 Y11.824 E32.36066
G1 X195.503 Y11.83 E40.14319
G1 X196.007 Y11.87 E40.16505
G1 X196.498 Y11.989 E40.18689
G1 X196.965 Y12.184 E40.20877
G1 X197.395 Y12.449 E40.23061
G1 X197.775 Y12.777 E40.25232
G1 X198.247 Y13.253 E40.2813
G1 X198.574 Y13.639 E40.30318
G1 X198.835 Y14.071 E40.325
G1 X199.026 Y14.54 E40.34689
G1 X199.14 Y15.032 E40.36873
G1 X199.175 Y15.506 E40.38928
G1 X199.176 Y195.495 E48.17168
G1 X199.136 Y195.999 E48.19354
G1 X199.017 Y196.49 E48.21538
G1 X198.823 Y196.957 E48.23725
G1 X198.557 Y197.387 E48.25911
G1 X198.239 Y197.758 E48.28024
G1 X197.759 Y198.238 E48.30959
G1 X197.374 Y198.566 E48.33146
G1 X196.943 Y198.829 E48.35329
G1 X196.475 Y199.022 E48.37518
G1 X195.983 Y199.138 E48.39703
G1 X195.496 Y199.175 E48.41815
G1 X15.504 Y199.176 E56.20068
G1 X15 Y199.136 E56.22254
G1 X14.509 Y199.017 E56.24438
G1 X14.042 Y198.823 E56.26625
G1 X13.612 Y198.557 E56.28811
G1 X13.239 Y198.236 E56.30939
G1 X12.759 Y197.755 E56.33877
G1 X12.431 Y197.37 E56.36064
G1 X12.168 Y196.939 E56.38247
G1 X11.976 Y196.471 E56.40434
G1 X11.861 Y195.979 E56.42619
G1 X11.824 Y195.495 E56.44718
G1 X11.83 Y15.497 E64.22996
G1 X11.87 Y14.993 E64.25182
G1 X11.989 Y14.502 E64.27367
G1 X12.184 Y14.035 E64.29555
G1 X12.449 Y13.605 E64.31739
G1 X12.786 Y13.215 E64.33967
G1 F3000 E60.83967
G0 F3600 X14.35 Y16.115
G0 X15.628 Y16.114
G0 X15.714 Y16.164
G0 X15.641 Y16.164
;TYPE:WALL-INNER
G1 F3000 E64.33967
G1 F1800 X15.614 Y16.176 E64.34095
G1 X15.614 Y16.1 E64.34242
G1 X15.799 Y16.1 E64.34725
G1 X15.641 Y16.164 E64.34772
G0 F3600 X16.164 Y15.64
G1 F1800 X16.1 Y15.795 E64.35497
G1 X16.1 Y15.615 E64.35601
G1 X16.174 Y15.615
G1 X16.164 Y15.64
G0 F3600 X16.164 Y15.715
G0 X105.227 Y15.773
G0 X105.227 Y60.228
G0 X60.644 Y60.642
G0 X61.011 Y61.012
G1 F1800 X60.614 Y61.176 E64.37458
G1 X60.614 Y61.012 E64.37608
G1 X60.614 Y60.615 E64.39324
G1 X61.011 Y60.615 E64.41041
G1 X61.175 Y60.615 E64.4175
G1 X61.011 Y61.012 E64.43047
G0 F3600 X104.945 Y104.567
G0 X106.012 Y104.989
G1 F1800 X106.223 Y105.5 E64.45437
G1 X106.011 Y106.012 E64.47833
G1 X105.499 Y106.223 E64.50228
G1 X104.99 Y106.013 E64.52608
G1 X104.777 Y105.498 E64.55018
G1 X104.988 Y104.989 E64.57401
G1 X105.5 Y104.777 E64.59797
G1 X106.012 Y104.989 E64.62193
G0 F3600 X150.285 Y61.012
G0 X150.385 Y61.012
G1 F1800 X150.385 Y61.175 E64.62897
G1 X149.989 Y61.012 E64.6419
G1 X149.825 Y60.614 E64.66051
G1 X149.989 Y60.614 E64.66201
G1 X150.385 Y60.614 E64.67913
G1 X150.385 Y61.012 E64.69355
G0 F3600 X150.285 Y61.012
G0 X150.772 Y105.227
G0 X195.227 Y105.227
G0 X195.232 Y16.552
G0 X195 Y16.456
G0 X194.8 Y15.797
G0 X194.9 Y15.797
G1 F1800 X194.836 Y15.641 E64.70084
G1 X194.825 Y15.614 E64.7021
G1 X194.9 Y15.614
G1 X194.9 Y15.797 E64.70322
G0 F3600 X195.385 Y16.175
G1 F1800 X195.359 Y16.165 E64.70442
G1 X195.202 Y16.1 E64.71177
G1 X195.385 Y16.1 E64.71286
G1 X195.385 Y16.175
G0 F3600 X195.285 Y16.175
G0 X195.227 Y105.227
G0 X150.773 Y105.772
G0 X150.286 Y149.989
G0 X150.386 Y149.989
G1 F1800 X150.386 Y150.385 E64.72998
G1 X149.988 Y150.385 E64.74719
G1 X149.825 Y150.385 E64.75424
G1 X149.988 Y149.989 E64.76716
G1 X150.386 Y149.825 E64.78577
G1 X150.386 Y149.989 E64.78727
G0 F3600 X150.286 Y149.989
G0 X150.773 Y105.772
G0 X195.228 Y105.772
G0 X195.286 Y194.836
G0 X195.359 Y194.836
G1 F1800 X195.386 Y194.824 E64.78855
G1 X195.386 Y194.9 E64.79001
G1 X195.201 Y194.9 E64.79484
G1 X195.359 Y194.836 E64.79532
G0 F3600 X194.9 Y195.385
G1 F1800 X194.825 Y195.385 E64.79856
G1 X194.835 Y195.359
G1 X194.9 Y195.202 E64.80254
G1 X194.9 Y195.385 E64.80363
G0 F3600 X194.83 Y195.315
G0 X105.773 Y195.227
G0 X105.228 Y150.773
G0 X61.553 Y150.233
G0 X61.013 Y149.99
G1 F1800 X61.176 Y150.386 E64.82214
G1 X61.013 Y150.386 E64.8236
G1 X60.615 Y150.386 E64.84081
G1 X60.615 Y149.99 E64.85793
G1 X60.615 Y149.826 E64.86502
G1 X61.013 Y149.99 E64.87804
G0 F3600 X61.62 Y150.353
G0 X105.228 Y150.773
G0 X105.228 Y195.228
G0 X16.2 Y195.252
G0 X16.1 Y195.252
G1 F1800 X15.926 Y195.078 E64.88868
G1 X15.748 Y194.9 E64.89956
G1 X15.615 Y194.9 E64.90531
G1 X15.615 Y194.826 E64.90645
G1 X15.64 Y194.836
G1 X15.754 Y194.883 E64.90692
G1 X16.013 Y194.99 E64.90975
G1 X16.117 Y195.244 E64.91252
G1 X16.164 Y195.359 E64.91374
G1 X16.176 Y195.386 E64.91502
G1 X16.1 Y195.386 E64.91545
G1 X16.1 Y195.252 E64.91681
G0 F3600 X16.2 Y195.252
G0 X105.27 Y195.27
G0 X105.215 Y195.215
;TYPE:WALL-OUTER
G1 F1800 X105.215 Y150.786 E66.83784
G1 X60.619 Y150.786 E68.76609
G1 X16.55 Y194.855 E71.46082
G1 X16.437 Y194.968 E71.46773
G1 X16.539 Y195.215 E71.47929
G1 X16.699 Y195.215 E71.48515
G1 X105.215 Y195.215 E75.31242
G0 F3600 X105.215 Y195.015
G0 X105.3 Y195.015
G0 X105.731 Y150.73
G0 X105.786 Y150.785
G1 F1800 X105.786 Y195.214 E77.23344
G1 X194.302 Y195.214 E81.06072
G1 X194.462 Y195.214 E81.06763
G1 X194.564 Y194.967 E81.07919
G1 X194.451 Y194.854 E81.08503
G1 X150.382 Y150.785 E83.77976
G1 X105.786 Y150.785 E85.70801
G0 F3600 X105.786 Y150.985
G0 X105.786 Y150.214
G1 F1800 X149.302 Y150.214 E87.58957
G1 X149.462 Y150.214 E87.59648
G1 X149.564 Y149.967 E87.60804
G1 X149.451 Y149.854 E87.61388
G1 X106.146 Y106.549 E90.2619
G1 X106.033 Y106.436 E90.26881
G1 X105.786 Y106.538 E90.28036
G1 X105.786 Y106.698 E90.28622
G1 X105.786 Y150.214 E92.16777
G0 F3600 X105.986 Y150.214
G0 X105.215 Y150.215
G1 F1800 X105.215 Y106.699 E94.04932
G1 X105.215 Y106.539 E94.05624
G1 X104.968 Y106.437 E94.0678
G1 X104.855 Y106.55 E94.07364
G1 X61.55 Y149.855 E96.72166
G1 X61.437 Y149.968 E96.72857
G1 X61.539 Y150.215 E96.74012
G1 X61.699 Y150.215 E96.74598
G1 X105.215 Y150.215 E98.62753
G0 F3600 X105.215 Y150.015
G0 X105.3 Y150.015
G0 X105.233 Y106.553
G0 X104.449 Y105.768
G0 X60.731 Y105.731
G0 X60.786 Y105.786
G1 F1800 X60.786 Y149.303 E100.50913
G1 X60.786 Y149.463 E100.51604
G1 X61.033 Y149.565 E100.5276
G1 X61.146 Y149.452 E100.53344
G1 X104.452 Y106.146 E103.18152
G1 X104.565 Y106.033 E103.18843
G1 X104.463 Y105.786 E103.19998
G1 X104.303 Y105.786 E103.20584
G1 X60.786 Y105.786 E105.08744
G0 F3600 X60.786 Y105.986
G0 X60.785 Y105.215
G1 F1800 X104.301 Y105.215 E106.96899
G1 X104.461 Y105.215 E106.97591
G1 X104.563 Y104.968 E106.98746
G1 X104.45 Y104.855 E106.99331
G1 X61.145 Y61.55 E109.64132
G1 X61.032 Y61.437 E109.64823
G1 X60.785 Y61.539 E109.65979
G1 X60.785 Y61.699 E109.66564
G1 X60.785 Y105.215 E111.5472
G0 F3600 X60.985 Y105.215
G0 X60.985 Y105.3
G0 X15.73 Y105.27
G0 X15.785 Y105.215
G1 F1800 X60.214 Y105.215 E113.46823
G1 X60.214 Y60.619 E115.39647
G1 X16.145 Y16.55 E118.09121
G1 X16.032 Y16.437 E118.09812
G1 X15.785 Y16.539 E118.10967
G1 X15.785 Y16.699 E118.11553
G1 X15.785 Y105.215 E121.9428
G0 F3600 X15.985 Y105.215
G0 X15.786 Y105.786
G1 F1800 X15.786 Y194.303 E125.77011
G1 X15.786 Y194.463 E125.77703
G1 X16.033 Y194.565 E125.78859
G1 X16.146 Y194.452 E125.79443
G1 X60.215 Y150.383 E128.48916
G1 X60.215 Y105.786 E130.41745
G1 X15.786 Y105.786 E132.33848
G0 F3600 X15.786 Y105.986
G0 X15.701 Y105.986
G0 X15.773 Y105.773
G0 X60.227 Y105.228
G0 X60.767 Y61.553
G0 X61.552 Y60.768
G0 X105.269 Y60.731
G0 X105.214 Y60.786
G1 F1800 X61.698 Y60.786 E134.22004
G1 X61.538 Y60.786 E134.22695
G1 X61.436 Y61.033 E134.23851
G1 X61.549 Y61.146 E134.24435
G1 X104.854 Y104.451 E136.89237
G1 X104.967 Y104.564 E136.89928
G1 X105.214 Y104.462 E136.91083
G1 X105.214 Y104.302 E136.91669
G1 X105.214 Y60.786 E138.79824
G0 F3600 X105.014 Y60.786
G0 X105.214 Y60.215
G1 F1800 X105.214 Y15.786 E140.71927
G1 X16.697 Y15.786 E144.54658
G1 X16.537 Y15.786 E144.5535
G1 X16.435 Y16.033 E144.56506
G1 X16.548 Y16.146 E144.5709
G1 X60.618 Y60.215 E147.26566
G1 X105.214 Y60.215 E149.19391
G0 F3600 X105.214 Y60.015
G0 X105.299 Y60.015
G0 X105.73 Y60.73
G0 X105.785 Y60.785
G1 F1800 X105.785 Y104.302 E151.07551
G1 X105.785 Y104.462 E151.08243
G1 X106.032 Y104.564 E151.09398
G1 X106.145 Y104.451 E151.09983
G1 X149.451 Y61.145 E153.7479
G1 X149.564 Y61.032 E153.75481
G1 X149.462 Y60.785 E153.76637
G1 X149.302 Y60.785 E153.77222
G1 X105.785 Y60.785 E155.65382
G0 F3600 X105.785 Y60.985
G0 X105.7 Y60.985
G0 X105.73 Y15.73
G0 X105.785 Y15.785
G1 F1800 X105.785 Y60.214 E157.57485
G1 X150.382 Y60.214 E159.50314
G1 X194.451 Y16.145 E162.19787
G1 X194.564 Y16.032 E162.20478
G1 X194.462 Y15.785 E162.21634
G1 X194.302 Y15.785 E162.2222
G1 X105.785 Y15.785 E166.04951
G0 F3600 X105.785 Y15.985
G0 X105.7 Y15.985
G0 X105.764 Y15.794
G0 X194.8 Y15.7
G0 X195.3 Y15.7
G1 F1800 X195.785 Y15.7 E166.07048
G1 X195.786 Y195.1 E173.82741
G1 X195.786 Y195.3 E173.83606
G1 X195.586 Y195.3 E173.84166
G1 X195.3 Y195.3 E173.85402
G1 X195.3 Y195.785 E173.87499
G1 X15.7 Y195.786 E181.64057
G1 X15.7 Y195.418 E181.65648
G1 X15.582 Y195.3 E181.6637
G1 X15.215 Y195.3 E181.67956
G1 X15.214 Y15.9 E189.43649
G1 X15.214 Y15.7 E189.44514
G1 X15.414 Y15.7 E189.45074
G1 X15.7 Y15.7 E189.46311
G1 X15.7 Y15.215 E189.48408
G1 X195.1 Y15.214 E197.24101
G1 X195.3 Y15.214 E197.24965
G1 X195.3 Y15.414 E197.25525
G1 X195.3 Y15.7 E197.26762
G0 F3600 X195.5 Y15.7
G0 X195.315 Y16.17
G0 X195.227 Y105.227
G0 X150.73 Y105.269
G0 X150.785 Y105.214
G1 F1800 X195.214 Y105.214 E199.18865
G1 X195.214 Y16.698 E203.01592
G1 X195.214 Y16.538 E203.02284
G1 X194.967 Y16.436 E203.03439
G1 X194.854 Y16.549 E203.04023
G1 X150.785 Y60.618 E205.73497
G1 X150.785 Y105.214 E207.66322
G0 F3600 X150.985 Y105.214
G0 X150.214 Y105.214
G1 F1800 X150.214 Y61.698 E209.54477
G1 X150.214 Y61.538 E209.55169
G1 X149.967 Y61.436 E209.56324
G1 X149.854 Y61.549 E209.56909
G1 X106.549 Y104.854 E212.2171
G1 X106.436 Y104.967 E212.22401
G1 X106.538 Y105.214 E212.23556
G1 X106.698 Y105.214 E212.24142
G1 X150.214 Y105.214 E214.12297
G0 F3600 X150.214 Y105.014
G0 X150.215 Y105.785
G1 F1800 X106.698 Y105.785 E216.00457
G1 X106.538 Y105.785 E216.01149
G1 X106.436 Y106.032 E216.02304
G1 X106.549 Y106.145 E216.02889
G1 X149.855 Y149.451 E218.67696
G1 X149.968 Y149.564 E218.68387
G1 X150.215 Y149.462 E218.69543
G1 X150.215 Y149.302 E218.70129
G1 X150.215 Y105.785 E220.58288
G0 F3600 X150.015 Y105.785
G0 X150.786 Y105.785
G1 F1800 X150.786 Y150.382 E222.51117
G1 X194.855 Y194.45 E225.20588
G1 X194.968 Y194.563 E225.21279
G1 X195.215 Y194.461 E225.22434
G1 X195.215 Y194.301 E225.2302
G1 X195.215 Y105.785 E229.05747
G1 X150.786 Y105.785 E230.9785
G0 F3600 X150.786 Y105.985
G0 X150.701 Y105.985
G0 X150.276 Y105.794
G0 X105.8 Y105.499
;TYPE:SKIN
G1 F1800 X105.711 Y105.713 E230.98852
G1 X105.499 Y105.801 E230.99844
G1 X105.288 Y105.714 E231.00831
G1 X105.2 Y105.499 E231.01836
G1 X105.287 Y105.288 E231.02822
G1 X105.5 Y105.199 E231.03821
G1 X105.713 Y105.288 E231.04819
G1 X105.8 Y105.499 E231.05806
G0 F3600 X105.573 Y105.573
G1 F1800 X105.425 Y105.425 E231.06711
G0 F3600 X104.851 Y104.851
;TYPE:SKIN
G1 F1800 X61.148 Y61.148 E232.40328
G0 F3600 X61.417 Y60.569
G1 F1800 X61.631 Y60.5 E232.40764
G1 X105.189 Y60.5 E233.25235
G1 X105.498 Y60.809 E233.26083
G1 X105.498 Y104.367 E234.10554
G1 X105.428 Y104.58 E234.10989
G1 X106.206 Y104.792 E234.12552
G1 X110.307 Y100.69 E234.23801
G1 X114.267 Y96.731 E234.3466
G1 X118.368 Y92.629 E234.45909
G1 X122.328 Y88.67 E234.56768
G1 X126.429 Y84.568 E234.68016
G1 X130.389 Y80.609 E234.78876
G1 X134.349 Y76.649 E234.89736
G1 X138.45 Y72.548 E235.00983
G1 X142.41 Y68.588 E235.11844
G1 X146.511 Y64.487 E235.23091
G1 X149.764 Y61.234 E235.32013
G1 X150.497 Y61.685 E235.33682
G1 X150.497 Y105.243 E236.18153
G1 X150.753 Y105.499 E236.18855
G1 X195.16 Y105.499 E237.04972
G1 X195.471 Y105.527 E237.05578
G1 X195.498 Y107.817 E237.10019
G1 X195.498 Y173.437 E238.37275
G1 X195.498 Y194.367 E238.77864
G1 X195.429 Y194.581 E238.783
G0 F3600 X195.046 Y195.046
G1 F1800 X150.564 Y150.564 E240.14299
G0 F3600 X150.566 Y150.572
G0 X194.946 Y194.566
G0 X195.233 Y194.447
G0 X195.228 Y105.772
G0 X150.773 Y105.772
G0 X150.286 Y149.602
G0 X150.43 Y149.581
G1 F1800 X150.499 Y149.368 E240.14735
G1 X150.499 Y105.81 E240.99468
G1 X150.188 Y105.499 E241.00323
G1 X106.63 Y105.499 E241.85056
G1 X106.417 Y105.568 E241.85492
G0 F3600 X106.149 Y106.149
G1 F1800 X149.85 Y149.85 E243.19103
G0 F3600 X149.581 Y150.429
G1 F1800 X149.367 Y150.498 E243.19539
G1 X105.809 Y150.498 E244.03934
G1 X105.499 Y150.188 E244.04784
G1 X105.499 Y106.631 E244.89177
G1 X105.569 Y106.417 E244.89613
G1 X104.792 Y106.207 E244.91173
G1 X93.903 Y117.096 E245.2101
G1 X80.468 Y130.531 E245.57823
G1 X68.73 Y142.269 E245.89986
G1 X61.235 Y149.764 E246.10523
G1 X60.5 Y149.312 E246.12195
G1 X60.5 Y105.755 E246.96588
G1 X60.244 Y105.499 E246.9729
G1 X15.837 Y105.499 E247.8333
G1 X15.527 Y105.471 E247.83933
G1 X15.499 Y103.18 E247.88372
G1 X15.499 Y37.561 E249.15512
G1 X15.499 Y16.63 E249.56066
G1 X15.569 Y16.417 E249.56501
G0 F3600 X15.952 Y15.952
G1 F1800 X60.434 Y60.434 E250.925
G0 F3600 X60.429 Y60.432
G0 X16.054 Y16.434
G0 X15.767 Y16.553
G0 X15.772 Y105.228
G0 X60.227 Y105.228
G0 X60.714 Y61.398
G0 X60.569 Y61.418
G1 F1800 X60.498 Y61.63 E250.92935
G1 X60.498 Y105.188 E251.77657
G1 X60.809 Y105.499 E251.78512
G1 X104.367 Y105.499 E252.63235
G1 X104.58 Y105.429 E252.63671
G0 F3600 X104.56 Y105.409
G0 X60.618 Y105.59
G1 F1800 X60.408 Y105.38 E252.64313
G0 F3600 X60.515 Y149.255
G0 X60.41 Y149.505
G1 F1800 X60.477 Y149.572 E252.64518
G0 F3600 X60.715 Y149.572
G0 X60.228 Y105.773
G0 X15.773 Y105.773
G0 X15.768 Y194.449
G0 X16.026 Y194.556
G0 X60.322 Y150.549
G0 X60.386 Y150.613
G1 F1800 X60.245 Y150.754 E252.64906
G1 X47.234 Y163.765 E253.00747
G1 X35.496 Y175.503 E253.33082
G1 X22.061 Y188.938 E253.70091
G1 X16.263 Y194.736 E253.86063
G1 X16.468 Y195.508 E253.87619
G1 X21.833 Y195.498 E253.98069
G1 X87.453 Y195.498 E255.25888
G1 X105.272 Y195.498 E255.60597
G0 F3600 X105.527 Y195.471
G1 F1800 X105.837 Y195.498 E255.61206
G1 X171.456 Y195.498 E256.8959
G1 X194.366 Y195.498 E257.34414
G1 X194.58 Y195.429 E257.34854
G0 F3600 X194.559 Y195.285
G0 X105.591 Y195.252
G0 X105.5 Y195.161
G1 F1800 X105.5 Y194.878 E257.35408
G1 X105.5 Y150.755 E258.21755
G1 X105.244 Y150.499 E258.22463
G1 X61.686 Y150.499 E259.07704
G1 X61.46 Y150.556 E259.0816
G0 F3600 X61.747 Y150.485
G0 X105.409 Y150.381
G1 F1800 X105.617 Y150.588 E259.08795
G0 F3600 X149.448 Y150.232
